usr/share/icons/biglinux-icons-material/24/actions/audio-volume-medium.svg

<svg xmlns="http://www.w3.org/2000/svg" viewBox="0 0 24 24">
  <defs id="defs3051">
    <style type="text/css" id="current-color-scheme">
      .ColorScheme-Text {
        color:#363636;
      }
      </style>
  </defs>
 <path 
     style="fill:currentColor;fill-opacity:1;stroke:none" 
     d="M 11.988281 4 L 7 8.9902344 L 7 9 L 7 10 L 7 14 L 7 15 L 7 15.009766 L 11.988281 20 L 13 20 L 13 19.597656 L 13 4.4023438 L 13 4 L 11.988281 4 z M 15.324219 8.28125 L 14.785156 9.1425781 A 4 4 0 0 1 16 12 A 4 4 0 0 1 14.789062 14.861328 L 15.328125 15.724609 A 5 5 0 0 0 17 12 A 5 5 0 0 0 15.324219 8.28125 z M 4 9 L 4 10 L 4 14 L 4 15 L 6 15 L 6 14 L 6 10 L 6 9 L 4 9 z "
     class="ColorScheme-Text"
     />
 <path 
     style="fill:currentColor;fill-opacity:0.5;stroke:none" 
     d="M 14.865234 4.5371094 L 14.621094 5.5136719 A 7 7 0 0 1 19 12 A 7 7 0 0 1 14.619141 18.478516 L 14.863281 19.453125 A 8 8 0 0 0 20 12 A 8 8 0 0 0 14.865234 4.5371094 z "
     class="ColorScheme-Text"
     />
</svg>

<svg xmlns="http://www.w3.org/2000/svg" viewBox="0 0 24 24"><defs id="defs3051"><style id="current-color-scheme" type="text/css">.ColorScheme-Text{color:#dedede}</style></defs><path d="M11.988 4 7 8.99v6.02L11.988 20H13V4h-1.012zm3.336 4.281-.539.862A4 4 0 0 1 16 12a4 4 0 0 1-1.21 2.861l.538.864A5 5 0 0 0 17 12a5 5 0 0 0-1.676-3.719zM4 9v6h2V9H4z" class="ColorScheme-Text" style="fill:currentColor;fill-opacity:1;stroke:none"/><path d="m14.865 4.537-.244.977A7 7 0 0 1 19 12a7 7 0 0 1-4.38 6.479l.243.974A8 8 0 0 0 20 12a8 8 0 0 0-5.135-7.463z" class="ColorScheme-Text" style="fill:currentColor;fill-opacity:.5;stroke:none"/></svg>
